!!!COM: Bach, Johann Sebastian
!!!CDT: 1685/3//-1750/7/28/
!!!OTL@@DE: Du Lebensfuerst, Herr Jesu Christ
!!!AGN: 4-Part Chorale
!!!SCT: BH 361
!!!SCT: BWV 248
**harm	**root	**kern	**kern	**kern	**kern
!	!	!bass	!tenor	!alto	!soprno
*	*Iorgan	*Iorgan	*Iorgan	*Iorgan	*Iorgan
*M4/4	*M4/4	*M4/4	*M4/4	*M4/4	*M4/4
*met(c)	*met(c)	*met(c)	*met(c)	*met(c)	*met(c)
*MM60	*MM60	*MM60	*MM60	*MM60	*MM60
*k[b-e-]	*k[b-e-]	*k[b-e-]	*k[b-e-]	*k[b-e-]	*k[b-e-]
*B-:	*B-:	*B-:	*B-:	*B-:	*B-:
*>[A,A,B]	*>[A,A,B]	*>[A,A,B]	*>[A,A,B]	*>[A,A,B]	*>[A,A,B]
*>A	*>A	*>A	*>A	*>A	*>A
I	4GG	8B-	4d	4f	4b-
.	.	8A	.	.	.
=1	=1	=1	=1	=1	=1
vi	4EE	4G	8d	4g	4b-
.	.	.	4e-	.	.
V7	4DD	4F	.	4a	4cc
.	.	.	8f	.	.
I	8GG	4B-	8d	8f	8dd
V7d/V	8AA	.	8c	8g	8ee
Vb	4DD	8A	4c	4a	4ff
.	.	8B-	.	.	.
=2	=2	=2	=2	=2	=2
Vc	4DD	4c	4c	8g	4ff
.	.	.	.	8a	.
V7/V	4AA	4C	4c	4b-	4ee
V;	4DD;	4F;	4c;	4a;	4ff;
V/vi	4BB	4F#	8d	4a	4dd
.	.	.	8c	.	.
=3	=3	=3	=3	=3	=3
IVb	4CC	8G	8B-	4g	4ee-
.	.	8A	8c	.	.
I	8GG	8B-	8d	8f	4dd
IV7	8CC	8E-	8e-	8g	.
V7d	4DD	8e-	4f	4a	4cc
.	.	8d	.	.	.
I	4GG	8c	4f	4b-	4dd
.	.	8B-	.	.	.
=4	=4	=4	=4	=4	=4
V	2DD	4f	4.f	4b-	2cc
.	.	4F	.	4a	.
.	.	.	8e-	.	.
I;	4GG;	4B-;	4d;	4f;	4b-;
=:|!	=:|!	=:|!	=:|!	=:|!	=:|!
*>B	*>B	*>B	*>B	*>B	*>B
V	4DD	4F	8f	8a	4cc
.	.	.	8g	8b-	.
=5	=5	=5	=5	=5	=5
V	4DD	8f	8a	4.cc	4cc
.	.	8e-	8g	.	.
viio/ii	4GG#	4d	4f	.	4dd
.	.	.	.	8b	.
ii	4AA	4c	4g	8cc	4ee-
.	.	.	.	8b	.
viioD7/vi	4DD#	4F#	4a	4cc	4ee-
!!linebreak: 2
=6	=6	=6	=6	=6	=6
vi	4EE	4G	4d	4cc	8dd
.	.	.	.	.	8cc
V/ii	4EE	4G	8g	4b	4dd
.	.	.	8f	.	.
ii;	4AA;	4C;	4e-;	4g;	4cc;
vi	8EE	8G	8B-	8g	4dd
V7c/vi	8BB	8A	8c	8f#	.
=7	=7	=7	=7	=7	=7
vib	4EE	4B-	8d	4g	4dd
.	.	.	8e-	.	.
V7b/ii	4EE	4B	8f	4g	4dd
.	.	.	8g	.	.
ii	4AA	4c	4e-	8g	8ee-
.	.	.	.	8a	8ff
V7b/V/vi	4FF#	4c#	4e	8b-	4gg
.	.	.	.	8a	.
=8	=8	=8	=8	=8	=8
V/vi	4BB	4d	4d	8a	4gg
.	.	.	.	8b-	.
V7/vi	4BB	4D	4d	4cc	4ff#
vi;	4EE;	4G;	4d;	4b-;	4gg;
V	4DD	8f	4f	4cc	4aa
.	.	8e-	.	.	.
=9	=9	=9	=9	=9	=9
Ib	4GG	8d	4f	8b-	4bb-
.	.	8c	.	8cc	.
I	4GG	8B-	4b-	4dd	4dd
.	.	8A	.	.	.
IV7b	8CC	8G	8B-	8dd	4ee-
viio	8FF#	8A	8c	8cc	.
I	8GG	8B-	4d	8cc	4dd
vi	8EE	8G	.	8b-	.
=10	=10	=10	=10	=10	=10
V7b/V	2AA	8E	8g	2b-	2cc
.	.	8D	8f	.	.
.	.	8E	8g	.	.
.	.	8C	8e	.	.
V;	4DD;	4F;	4f;	4a;	4cc;
Ib	4GG	4D	4f	8b-	4ff
.	.	.	.	8a	.
=11	=11	=11	=11	=11	=11
IV	4CC	4E-	8f	4g	4gg
.	.	.	8e-	.	.
V7	4DD	4F	8e-	4a	4ff
.	.	.	8d	.	.
IV7b	8CC	8G	8d	8b-	4ee-
vii	8FF#	8A	8c	8cc	.
I	4GG	4B-	4B-	4f	8dd
.	.	.	.	.	8ee-
=12	=12	=12	=12	=12	=12
ii7b	4AA	4E-	8B-	4g	2cc
.	.	.	16A	.	.
.	.	.	16G	.	.
V	4DD	4F	4A	4f	.
I;	4GG;	4BB-;	4d;	4f;	4b-;
==	==	==	==	==	==
*-	*-	*-	*-	*-	*-
!!chor2scor: -l 2 -o %b.pmx
!!!YEC: Copyright 1994, David Huron
!!!YEC: Changes/Additions 2001 by Craig Stuart Sapp
!!!YEN: United States of America
!!!SMA: 371 Bach Chorales, edited by Ludwig Erk, C.F. Peters
!!!PDT: 1850, 1865
!!!ONB: Harmony and Root analysis done manually
